X:1
T:Chinese Melody, 77.77
T:Chinese Melody, 77.77
T:Anonymous
T:Public Domain Courtesy of the Cyber Hymnal™
C:Anonymous
Z:Public Domain
Z:Courtesy of the Cyber Hymnal™
%%score ( 1 2 ) ( 3 4 )
L:1/8
Q:1/4=113
M:4/4
K:C
V:1 treble 
V:2 treble 
V:3 bass 
V:4 bass 
V:1
 [CE]2 [G,C]2 CD [CE]2 | [CG]2 GA ED C2 | [CE]2 [G,C]2 CD [CE]2 | [CG]2 GA ED C2 | %4
 [Ec]2 [Ec]2 [Fd]2 [Ec]2 | [EB]2 [FA]2 [DG]4 | [EG]2 GA ED [CE]2 | [CG]2 GA ED !fermata!C2 |] %8
V:2
 x4 G,2 x2 | x2 C2 B,2 C2 | x4 G,2 x2 | x2 C2 B,2 C2 | x8 | x8 | x2 C2 B,2 x2 | x2 C2 B,2 C2 |] %8
V:3
 [C,G,]2 [C,E,]2 E,F, [C,G,]2 | [E,G,]2 E,F, G,2 [C,E,]2 | [C,G,]2 [C,E,]2 E,F, [C,G,]2 | %3
 [E,G,]2 E,F, G,2 [C,E,]2 | [C,G,]2 [A,,A,]2 [D,A,]2 A,2 | [G,B,]2 [F,C]2 [G,B,]4 | %6
 [C,G,]2 E,F, G,2 [C,G,]2 | [E,G,]2 E,F, G,2 !fermata![C,E,]2 |] %8
V:4
 x4 C,2 x2 | x2 E,F, G,2 x2 | x4 C,2 x2 | x2 E,F, G,2 x2 | x6 A,2 | x8 | x2 E,F, G,2 x2 | %7
 x2 E,F, x4 |] %8

